svg/s/AR.svg

<svg width="16" height="12" viewBox="0 0 16 12" fill="none" xmlns="http://www.w3.org/2000/svg">
<g clip-path="url(#clip0_270_54951)">
<rect width="16" height="12" fill="white"/>
<path fill-rule="evenodd" clip-rule="evenodd" d="M0 0V12H16V0H0Z" fill="#F7FCFF"/>
<mask id="mask0_270_54951" style="mask-type:luminance" maskUnits="userSpaceOnUse" x="0" y="0" width="16" height="12">
<path fill-rule="evenodd" clip-rule="evenodd" d="M0 0V12H16V0H0Z" fill="white"/>
</mask>
<g mask="url(#mask0_270_54951)">
<path fill-rule="evenodd" clip-rule="evenodd" d="M0 0V4H16V0H0Z" fill="#58A5FF"/>
<path fill-rule="evenodd" clip-rule="evenodd" d="M0 8V12H16V8H0Z" fill="#58A5FF"/>
<path fill-rule="evenodd" clip-rule="evenodd" d="M8.27631 7.24358C8.27631 7.24358 7.76536 8.30294 7.31629 8.52013C7.51013 8.03425 7.58147 7.04288 7.58147 7.04288C7.58147 7.04288 6.41552 7.50515 6.00628 7.4209C6.49837 7.07703 7.18141 6.44012 7.18141 6.44012C7.18141 6.44012 5.6723 5.94675 5.70932 5.73678C6.39056 5.85898 7.32742 5.72577 7.32742 5.72577C7.32742 5.72577 6.26872 4.45615 6.37609 4.36173C6.53746 4.51859 7.80624 5.18135 7.80624 5.18135C7.80624 5.18135 7.89829 4.05175 8.17134 3.6709C8.20409 3.93974 8.58734 5.15692 8.58734 5.15692C8.58734 5.15692 9.35778 4.38603 9.7854 4.38603C9.59757 4.61892 9.15283 5.64189 9.15283 5.64189C9.15283 5.64189 10.2612 5.62444 10.6826 5.8319C10.1722 5.9045 9.27787 6.35346 9.27787 6.35346C9.27787 6.35346 10.4426 7.23697 10.3364 7.4209C9.71106 7.11499 8.98809 7.01254 8.98809 7.01254C8.98809 7.01254 9.18792 8.24207 9.02639 8.52013C8.86885 8.11082 8.27631 7.24358 8.27631 7.24358Z" fill="#FFD018" stroke="#F19900" stroke-opacity="0.98" stroke-width="0.25"/>
<path fill-rule="evenodd" clip-rule="evenodd" d="M8.20935 6.6709C8.48549 6.6709 8.70935 6.44704 8.70935 6.1709C8.70935 5.89476 8.48549 5.6709 8.20935 5.6709C7.93321 5.6709 7.70935 5.89476 7.70935 6.1709C7.70935 6.44704 7.93321 6.6709 8.20935 6.6709Z" fill="#FFD018" stroke="#F19900" stroke-opacity="0.98" stroke-width="0.25"/>
</g>
</g>
<defs>
<clipPath id="clip0_270_54951">
<rect width="16" height="12" fill="white"/>
</clipPath>
</defs>
</svg>

<svg width="16" height="12" fill="none" xmlns="http://www.w3.org/2000/svg">
  <mask id="a" maskUnits="userSpaceOnUse" x="0" y="0" width="16" height="12">
    <path fill="#fff" d="M0 0h16v12H0z"/>
  </mask>
  <g mask="url(#a)">
    <path fill-rule="evenodd" clip-rule="evenodd" d="M0 0v12h16V0H0z" fill="#F7FCFF"/>
    <mask id="b" maskUnits="userSpaceOnUse" x="0" y="0" width="16" height="12">
      <path fill-rule="evenodd" clip-rule="evenodd" d="M0 0v12h16V0H0z" fill="#fff"/>
    </mask>
    <g mask="url(#b)" fill-rule="evenodd" clip-rule="evenodd">
      <path d="M0 0v4h16V0H0zm0 8v4h16V8H0z" fill="#58A5FF"/>
      <path d="M8.276 7.244s-.51 1.059-.96 1.276c.194-.486.265-1.477.265-1.477s-1.165.462-1.575.378c.492-.344 1.175-.98 1.175-.98s-1.509-.494-1.472-.704c.682.122 1.618-.011 1.618-.011s-1.058-1.27-.95-1.364c.16.157 1.43.82 1.43.82s.091-1.13.364-1.511c.033.269.416 1.486.416 1.486s.77-.771 1.198-.771c-.187.233-.632 1.256-.632 1.256s1.108-.018 1.53.19c-.51.072-1.405.521-1.405.521s1.165.884 1.058 1.068a5.166 5.166 0 00-1.348-.408s.2 1.23.038 1.507c-.157-.41-.75-1.276-.75-1.276z" fill="#FFD018" stroke="#F19900" stroke-opacity=".98" stroke-width=".25"/>
      <path d="M8.21 6.67a.5.5 0 100-1 .5.5 0 000 1z" fill="#FFD018" stroke="#F19900" stroke-opacity=".98" stroke-width=".25"/>
    </g>
  </g>
</svg>
